images/50273085.svg

<?xml version="1.0" encoding="UTF-8"?>
<svg xmlns="http://www.w3.org/2000/svg" xmlns:xlink="http://www.w3.org/1999/xlink" width="300pt" height="300pt" viewBox="0 0 300 300" version="1.1">
<defs>
<g>
<symbol overflow="visible" id="glyph0-0">
<path style="stroke:none;" d="M 0.796875 2.828125 L 0.796875 -11.28125 L 8.796875 -11.28125 L 8.796875 2.828125 Z M 1.703125 1.9375 L 7.90625 1.9375 L 7.90625 -10.390625 L 1.703125 -10.390625 Z M 1.703125 1.9375 "/>
</symbol>
<symbol overflow="visible" id="glyph0-1">
<path style="stroke:none;" d="M 1.578125 -11.671875 L 8.28125 -11.671875 L 8.28125 -10.34375 L 3.15625 -10.34375 L 3.15625 -6.90625 L 7.78125 -6.90625 L 7.78125 -5.578125 L 3.15625 -5.578125 L 3.15625 0 L 1.578125 0 Z M 1.578125 -11.671875 "/>
</symbol>
<symbol overflow="visible" id="glyph0-2">
<path style="stroke:none;" d="M 1.578125 -11.671875 L 3.703125 -11.671875 L 8.875 -1.90625 L 8.875 -11.671875 L 10.40625 -11.671875 L 10.40625 0 L 8.28125 0 L 3.109375 -9.765625 L 3.109375 0 L 1.578125 0 Z M 1.578125 -11.671875 "/>
</symbol>
</g>
</defs>
<g id="surface17941">
<rect x="0" y="0" width="300" height="300" style="fill:rgb(100%,100%,100%);fill-opacity:1;stroke:none;"/>
<path style="fill:none;stroke-width:1.2;stroke-linecap:butt;stroke-linejoin:miter;stroke:rgb(20%,80%,80%);stroke-opacity:1;stroke-miterlimit:10;" d="M 66.511719 30.1875 L 70.628906 48.863281 "/>
<path style="fill:none;stroke-width:1.2;stroke-linecap:butt;stroke-linejoin:miter;stroke:rgb(0%,0%,0%);stroke-opacity:1;stroke-miterlimit:10;" d="M 70.628906 48.863281 L 74.746094 67.539062 "/>
<path style=" stroke:none;fill-rule:nonzero;fill:rgb(100%,100%,100%);fill-opacity:1;" d="M 61.511719 20.6875 L 71.511719 20.6875 L 71.511719 39.6875 L 61.511719 39.6875 Z M 61.511719 20.6875 "/>
<g style="fill:rgb(20%,80%,80%);fill-opacity:1;">
  <use xlink:href="#glyph0-1" x="61.511719" y="35.539062"/>
</g>
<path style="fill:none;stroke-width:1.2;stroke-linecap:butt;stroke-linejoin:miter;stroke:rgb(0%,0%,0%);stroke-opacity:1;stroke-miterlimit:10;" d="M 74.746094 67.539062 L 111.210938 79.085938 "/>
<path style="fill:none;stroke-width:1.2;stroke-linecap:butt;stroke-linejoin:miter;stroke:rgb(0%,0%,0%);stroke-opacity:1;stroke-miterlimit:10;" d="M 75.675781 77.273438 L 104.847656 86.511719 "/>
<path style="fill:none;stroke-width:1.2;stroke-linecap:butt;stroke-linejoin:miter;stroke:rgb(0%,0%,0%);stroke-opacity:1;stroke-miterlimit:10;" d="M 46.511719 93.347656 L 74.746094 67.539062 "/>
<path style="fill:none;stroke-width:1.2;stroke-linecap:butt;stroke-linejoin:miter;stroke:rgb(0%,0%,0%);stroke-opacity:1;stroke-miterlimit:10;" d="M 111.210938 79.085938 L 119.445312 116.4375 "/>
<path style="fill:none;stroke-width:1.2;stroke-linecap:butt;stroke-linejoin:miter;stroke:rgb(0%,0%,0%);stroke-opacity:1;stroke-miterlimit:10;" d="M 119.445312 116.4375 L 91.210938 142.246094 "/>
<path style="fill:none;stroke-width:1.2;stroke-linecap:butt;stroke-linejoin:miter;stroke:rgb(0%,0%,0%);stroke-opacity:1;stroke-miterlimit:10;" d="M 110.546875 112.378906 L 87.960938 133.023438 "/>
<path style="fill:none;stroke-width:1.2;stroke-linecap:butt;stroke-linejoin:miter;stroke:rgb(0%,0%,0%);stroke-opacity:1;stroke-miterlimit:10;" d="M 91.210938 142.246094 L 54.746094 130.699219 "/>
<path style="fill:none;stroke-width:1.2;stroke-linecap:butt;stroke-linejoin:miter;stroke:rgb(0%,0%,0%);stroke-opacity:1;stroke-miterlimit:10;" d="M 91.210938 142.246094 L 99.445312 179.601562 "/>
<path style="fill:none;stroke-width:1.2;stroke-linecap:butt;stroke-linejoin:miter;stroke:rgb(0%,0%,0%);stroke-opacity:1;stroke-miterlimit:10;" d="M 54.746094 130.699219 L 46.511719 93.347656 "/>
<path style="fill:none;stroke-width:1.2;stroke-linecap:butt;stroke-linejoin:miter;stroke:rgb(0%,0%,0%);stroke-opacity:1;stroke-miterlimit:10;" d="M 62.710938 125.027344 L 56.125 95.144531 "/>
<path style="fill:none;stroke-width:1.2;stroke-linecap:butt;stroke-linejoin:miter;stroke:rgb(0%,0%,0%);stroke-opacity:1;stroke-miterlimit:10;" d="M 99.445312 179.601562 L 74.0625 208.214844 "/>
<path style="fill:none;stroke-width:1.2;stroke-linecap:butt;stroke-linejoin:miter;stroke:rgb(0%,0%,0%);stroke-opacity:1;stroke-miterlimit:10;" d="M 103.640625 188.433594 L 83.335938 211.328125 "/>
<path style="fill:none;stroke-width:1.2;stroke-linecap:butt;stroke-linejoin:miter;stroke:rgb(0%,0%,0%);stroke-opacity:1;stroke-miterlimit:10;" d="M 134.503906 194.894531 L 99.445312 179.601562 "/>
<path style="fill:none;stroke-width:1.2;stroke-linecap:butt;stroke-linejoin:miter;stroke:rgb(0%,0%,0%);stroke-opacity:1;stroke-miterlimit:10;" d="M 74.0625 208.214844 L 83.75 224.707031 "/>
<path style="fill:none;stroke-width:1.2;stroke-linecap:butt;stroke-linejoin:miter;stroke:rgb(0%,0%,100%);stroke-opacity:1;stroke-miterlimit:10;" d="M 83.75 224.707031 L 93.4375 241.195312 "/>
<path style="fill:none;stroke-width:1.2;stroke-linecap:butt;stroke-linejoin:miter;stroke:rgb(0%,0%,0%);stroke-opacity:1;stroke-miterlimit:10;" d="M 36.710938 216.449219 L 74.0625 208.214844 "/>
<path style="fill:none;stroke-width:1.2;stroke-linecap:butt;stroke-linejoin:miter;stroke:rgb(0%,0%,100%);stroke-opacity:1;stroke-miterlimit:10;" d="M 93.4375 241.195312 L 130.789062 232.964844 "/>
<path style="fill:none;stroke-width:1.2;stroke-linecap:butt;stroke-linejoin:miter;stroke:rgb(0%,0%,100%);stroke-opacity:1;stroke-miterlimit:10;" d="M 93.4375 241.195312 L 80.746094 255.503906 "/>
<path style="fill:none;stroke-width:1.2;stroke-linecap:butt;stroke-linejoin:miter;stroke:rgb(0%,0%,0%);stroke-opacity:1;stroke-miterlimit:10;" d="M 80.746094 255.503906 L 68.058594 269.8125 "/>
<path style=" stroke:none;fill-rule:nonzero;fill:rgb(100%,100%,100%);fill-opacity:1;" d="M 87.4375 231.695312 L 99.4375 231.695312 L 99.4375 250.695312 L 87.4375 250.695312 Z M 87.4375 231.695312 "/>
<g style="fill:rgb(0%,0%,100%);fill-opacity:1;">
  <use xlink:href="#glyph0-2" x="87.4375" y="246.546875"/>
</g>
<path style="fill:none;stroke-width:1.2;stroke-linecap:butt;stroke-linejoin:miter;stroke:rgb(0%,0%,100%);stroke-opacity:1;stroke-miterlimit:10;" d="M 130.789062 232.964844 L 132.648438 213.929688 "/>
<path style="fill:none;stroke-width:1.2;stroke-linecap:butt;stroke-linejoin:miter;stroke:rgb(0%,0%,0%);stroke-opacity:1;stroke-miterlimit:10;" d="M 132.648438 213.929688 L 134.503906 194.894531 "/>
<path style="fill:none;stroke-width:1.2;stroke-linecap:butt;stroke-linejoin:miter;stroke:rgb(0%,0%,100%);stroke-opacity:1;stroke-miterlimit:10;" d="M 122.203125 228.285156 L 123.691406 213.054688 "/>
<path style="fill:none;stroke-width:1.2;stroke-linecap:butt;stroke-linejoin:miter;stroke:rgb(0%,0%,0%);stroke-opacity:1;stroke-miterlimit:10;" d="M 123.691406 213.054688 L 125.175781 197.828125 "/>
<path style=" stroke:none;fill-rule:nonzero;fill:rgb(100%,100%,100%);fill-opacity:1;" d="M 124.789062 223.464844 L 136.789062 223.464844 L 136.789062 242.464844 L 124.789062 242.464844 Z M 124.789062 223.464844 "/>
<g style="fill:rgb(0%,0%,100%);fill-opacity:1;">
  <use xlink:href="#glyph0-2" x="124.789062" y="238.316406"/>
</g>
<path style="fill:none;stroke-width:1.2;stroke-linecap:butt;stroke-linejoin:miter;stroke:rgb(0%,0%,0%);stroke-opacity:1;stroke-miterlimit:10;" d="M 134.503906 194.894531 L 167.484375 175.519531 "/>
<path style="fill:none;stroke-width:1.2;stroke-linecap:butt;stroke-linejoin:miter;stroke:rgb(0%,0%,0%);stroke-opacity:1;stroke-miterlimit:10;" d="M 167.484375 175.519531 L 184.117188 184.960938 "/>
<path style="fill:none;stroke-width:1.2;stroke-linecap:butt;stroke-linejoin:miter;stroke:rgb(0%,0%,100%);stroke-opacity:1;stroke-miterlimit:10;" d="M 184.117188 184.960938 L 200.753906 194.398438 "/>
<path style="fill:none;stroke-width:1.2;stroke-linecap:butt;stroke-linejoin:miter;stroke:rgb(0%,0%,0%);stroke-opacity:1;stroke-miterlimit:10;" d="M 175.253906 169.582031 L 188.558594 177.132812 "/>
<path style="fill:none;stroke-width:1.2;stroke-linecap:butt;stroke-linejoin:miter;stroke:rgb(0%,0%,100%);stroke-opacity:1;stroke-miterlimit:10;" d="M 188.558594 177.132812 L 201.867188 184.683594 "/>
<path style="fill:none;stroke-width:1.2;stroke-linecap:butt;stroke-linejoin:miter;stroke:rgb(0%,0%,0%);stroke-opacity:1;stroke-miterlimit:10;" d="M 167.195312 137.273438 L 167.484375 175.519531 "/>
<path style="fill:none;stroke-width:1.2;stroke-linecap:butt;stroke-linejoin:miter;stroke:rgb(0%,0%,100%);stroke-opacity:1;stroke-miterlimit:10;" d="M 200.753906 194.398438 L 217.242188 184.710938 "/>
<path style="fill:none;stroke-width:1.2;stroke-linecap:butt;stroke-linejoin:miter;stroke:rgb(0%,0%,0%);stroke-opacity:1;stroke-miterlimit:10;" d="M 217.242188 184.710938 L 233.734375 175.023438 "/>
<path style=" stroke:none;fill-rule:nonzero;fill:rgb(100%,100%,100%);fill-opacity:1;" d="M 194.753906 184.898438 L 206.753906 184.898438 L 206.753906 203.898438 L 194.753906 203.898438 Z M 194.753906 184.898438 "/>
<g style="fill:rgb(0%,0%,100%);fill-opacity:1;">
  <use xlink:href="#glyph0-2" x="194.753906" y="199.75"/>
</g>
<path style="fill:none;stroke-width:1.2;stroke-linecap:butt;stroke-linejoin:miter;stroke:rgb(0%,0%,0%);stroke-opacity:1;stroke-miterlimit:10;" d="M 233.734375 175.023438 L 233.445312 136.773438 "/>
<path style="fill:none;stroke-width:1.2;stroke-linecap:butt;stroke-linejoin:miter;stroke:rgb(0%,0%,0%);stroke-opacity:1;stroke-miterlimit:10;" d="M 224.703125 171.265625 L 224.476562 140.667969 "/>
<path style="fill:none;stroke-width:1.2;stroke-linecap:butt;stroke-linejoin:miter;stroke:rgb(0%,0%,0%);stroke-opacity:1;stroke-miterlimit:10;" d="M 233.734375 175.023438 L 267 193.898438 "/>
<path style="fill:none;stroke-width:1.2;stroke-linecap:butt;stroke-linejoin:miter;stroke:rgb(0%,0%,0%);stroke-opacity:1;stroke-miterlimit:10;" d="M 233.445312 136.773438 L 200.179688 117.898438 "/>
<path style="fill:none;stroke-width:1.2;stroke-linecap:butt;stroke-linejoin:miter;stroke:rgb(0%,0%,0%);stroke-opacity:1;stroke-miterlimit:10;" d="M 200.179688 117.898438 L 167.195312 137.273438 "/>
<path style="fill:none;stroke-width:1.2;stroke-linecap:butt;stroke-linejoin:miter;stroke:rgb(0%,0%,0%);stroke-opacity:1;stroke-miterlimit:10;" d="M 201.4375 127.597656 L 175.054688 143.09375 "/>
<path style="fill:none;stroke-width:1.2;stroke-linecap:butt;stroke-linejoin:miter;stroke:rgb(0%,0%,0%);stroke-opacity:1;stroke-miterlimit:10;" d="M 68.058594 269.8125 L 33 254.519531 "/>
<path style="fill:none;stroke-width:1.2;stroke-linecap:butt;stroke-linejoin:miter;stroke:rgb(0%,0%,0%);stroke-opacity:1;stroke-miterlimit:10;" d="M 33 254.519531 L 36.710938 216.449219 "/>
</g>
</svg>

<svg xmlns="http://www.w3.org/2000/svg" xmlns:xlink="http://www.w3.org/1999/xlink" width="300pt" height="300pt" viewBox="0 0 300 300"><defs><symbol overflow="visible"><path d="M.797 2.828v-14.11h8V2.83zm.906-.89h6.203v-12.33H1.703zm0 0"/></symbol><symbol overflow="visible" id="a"><path d="M1.578-11.672H8.28v1.328H3.157v3.438H7.78v1.328H3.157V0H1.578zm0 0"/></symbol><symbol overflow="visible" id="b"><path d="M1.578-11.672h2.125l5.172 9.766v-9.766h1.53V0H8.282L3.11-9.766V0H1.577zm0 0"/></symbol></defs><g><path fill="#fff" d="M0 0h300v300H0z"/><path d="M66.512 30.188l4.117 18.675" stroke-width="1.2" stroke="#3cc" stroke-miterlimit="10" fill="none"/><path d="M70.63 48.863l4.116 18.676" stroke-width="1.2" stroke="#000" stroke-miterlimit="10" fill="none"/><path d="M61.512 20.688h10v19h-10zm0 0" fill="#fff"/><use xlink:href="#a" x="61.512" y="35.539" fill="#3cc"/><path d="M74.746 67.54l36.465 11.546M75.676 77.273l29.172 9.24M46.512 93.348l28.234-25.81M111.21 79.086l8.235 37.352M119.445 116.438L91.21 142.245M110.547 112.38L87.96 133.022M91.21 142.246L54.747 130.7M91.21 142.246l8.235 37.356M54.746 130.7l-8.234-37.352M62.71 125.027l-6.585-29.882M99.445 179.602l-25.382 28.613M103.64 188.434l-20.304 22.894M134.504 194.895l-35.06-15.293M74.063 208.215l9.687 16.492" stroke-width="1.2" stroke="#000" stroke-miterlimit="10" fill="none"/><path d="M83.75 224.707l9.688 16.488" stroke-width="1.2" stroke="#00f" stroke-miterlimit="10" fill="none"/><path d="M36.71 216.45l37.352-8.235" stroke-width="1.2" stroke="#000" stroke-miterlimit="10" fill="none"/><path d="M93.438 241.195l37.35-8.23M93.438 241.195l-12.692 14.31" stroke-width="1.2" stroke="#00f" stroke-miterlimit="10" fill="none"/><path d="M80.746 255.504l-12.687 14.31" stroke-width="1.2" stroke="#000" stroke-miterlimit="10" fill="none"/><path d="M87.438 231.695h12v19h-12zm0 0" fill="#fff"/><use xlink:href="#b" x="87.438" y="246.547" fill="#00f"/><path d="M130.79 232.965l1.858-19.035" stroke-width="1.2" stroke="#00f" stroke-miterlimit="10" fill="none"/><path d="M132.648 213.93l1.856-19.035" stroke-width="1.2" stroke="#000" stroke-miterlimit="10" fill="none"/><path d="M122.203 228.285l1.488-15.23" stroke-width="1.2" stroke="#00f" stroke-miterlimit="10" fill="none"/><path d="M123.69 213.055l1.486-15.227" stroke-width="1.2" stroke="#000" stroke-miterlimit="10" fill="none"/><path d="M124.79 223.465h12v19h-12zm0 0" fill="#fff"/><use xlink:href="#b" x="124.789" y="238.316" fill="#00f"/><path d="M134.504 194.895l32.98-19.375M167.484 175.52l16.633 9.44" stroke-width="1.2" stroke="#000" stroke-miterlimit="10" fill="none"/><path d="M184.117 184.96l16.637 9.438" stroke-width="1.2" stroke="#00f" stroke-miterlimit="10" fill="none"/><path d="M175.254 169.582l13.305 7.55" stroke-width="1.2" stroke="#000" stroke-miterlimit="10" fill="none"/><path d="M188.56 177.133l13.307 7.55" stroke-width="1.2" stroke="#00f" stroke-miterlimit="10" fill="none"/><path d="M167.195 137.273l.29 38.247" stroke-width="1.2" stroke="#000" stroke-miterlimit="10" fill="none"/><path d="M200.754 194.398l16.488-9.687" stroke-width="1.2" stroke="#00f" stroke-miterlimit="10" fill="none"/><path d="M217.242 184.71l16.492-9.687" stroke-width="1.2" stroke="#000" stroke-miterlimit="10" fill="none"/><path d="M194.754 184.898h12v19h-12zm0 0" fill="#fff"/><use xlink:href="#b" x="194.754" y="199.75" fill="#00f"/><path d="M233.734 175.023l-.29-38.25M224.703 171.266l-.226-30.598M233.734 175.023L267 193.898M233.445 136.773l-33.265-18.875M200.18 117.898l-32.985 19.375M201.438 127.598l-26.383 15.496M68.06 269.813L33 254.52M33 254.52l3.71-38.07" stroke-width="1.2" stroke="#000" stroke-miterlimit="10" fill="none"/></g></svg>
